svg/mono/unionpay.svg

<svg xmlns="http://www.w3.org/2000/svg" width="750" height="471" viewBox="0 0 750 471">
  <path fill="#393939" fill-rule="evenodd" d="M0,40.0047706 C0,17.9107459 17.9143492,0 39.9919369,0 L710.008063,0 C732.095,0 750,17.9064659 750,40.0047706 L750,430.995229 C750,453.089254 732.085651,471 710.008063,471 L39.9919369,471 C17.905,471 0,453.093534 0,430.995229 L0,40.0047706 Z M496.181219,337.927431 L492.086151,337.927431 L490.947829,341.584906 L474.390424,341.584906 L475.528745,337.927431 L442,337.927431 L445.311481,326.850508 L448.726446,326.850508 L466.318689,267.912917 L469.837137,256 L486.704994,256 L484.94577,261.956459 C484.94577,261.956459 489.395572,258.716981 493.741891,257.567489 C497.174816,256.637422 513.818365,256.186237 520.047409,256.047874 L520,256 L538.006178,256 L538.213146,262.792453 C538.109662,263.941945 539.041016,264.464441 541.214175,264.464441 L544.836108,264.464441 L541.524627,275.645864 L531.797151,275.645864 C523.414965,276.272859 520.206968,272.615385 520.413935,268.539913 L520.274441,262.952353 L518.784967,267.808418 L512.989875,267.808418 L513.093359,267.912917 L495.708083,325.910015 L500.364853,325.910015 L498.850028,330.936139 L503.071735,330.936139 C504.417024,330.936139 505.65883,330.413643 506.590184,329.891147 C507.521538,329.473149 508.349408,329.055152 509.177278,327.696662 L522.216235,309.20029 L505.037927,309.20029 L507.935473,299.272859 L527.597391,299.272859 L530.391454,290.181422 L511.039986,290.181422 L514.351467,279 L568.163034,279 L564.851553,290.181422 L546.741891,290.181422 L543.947829,299.272859 L562.057491,299.272859 L559.056461,309.20029 L539.498026,309.20029 L535.979578,313.380261 L543.947829,313.380261 L545.914021,325.920174 C546.120989,327.174165 546.120989,328.01016 546.534924,328.532656 C546.948859,328.950653 549.328986,329.159652 550.674275,329.159652 L553.054402,329.159652 L549.328986,341.386067 L543.223443,341.386067 C542.292089,341.386067 540.843316,341.281567 538.877124,341.281567 C537.014416,341.072569 535.77261,340.027576 534.530805,339.400581 C533.392483,338.878084 531.736743,337.519594 531.322808,335.11611 L529.4601,322.576197 L520.560494,334.907112 C517.766432,338.773585 513.937532,341.804064 507.418054,341.804064 L495,341.804064 L496.181219,337.927431 Z M465.904754,326.014514 L479.357645,326.014514 L483.186545,312.952104 L469.837137,312.952104 L465.904754,326.014514 Z M476.667067,290.066763 L472.010297,305.532656 C472.010297,305.532656 477.081002,302.920174 479.875064,302.08418 C482.669126,301.457184 486.808478,300.934688 486.808478,300.934688 L490.016475,290.171263 L476.563583,290.171263 L476.667067,290.066763 Z M483.239185,267.912917 L478.94371,280.975327 C478.94371,280.975327 483.738658,278.951573 486.435817,278.307651 C489.132975,277.66373 493.128765,277.479752 493.128765,277.479752 L496.225502,268.004906 L483.339079,268.004906 L483.239185,267.912917 Z M334.31354,282 L379.742921,282 L376.43144,292.972424 L358.321778,292.972424 L355.527716,302.272859 L374.154797,302.272859 L370.739832,313.558781 L352.216235,313.558781 L347.662948,328.711176 C347.145529,330.383164 352.112751,330.592163 353.871975,330.592163 L363.185516,329.338171 L359.4601,341.878084 L338.556375,341.878084 C336.900635,341.878084 335.65883,341.669086 333.796122,341.251089 C332.036897,340.833091 331.209027,339.997097 330.48464,338.847605 C329.760254,337.593614 328.518449,336.65312 329.346319,333.936139 L335.348378,313.872279 L325,313.872279 L328.414965,302.377358 L338.763343,302.377358 L341.557405,293.076923 L331.209027,293.076923 L334.520508,282.104499 L334.31354,282 Z M365.700875,262.165457 L384.327956,262.165457 L380.912991,273.555878 L355.455981,273.555878 L352.661919,275.959361 C351.420113,277.108853 351.109662,276.690856 349.557405,277.526851 C348.108632,278.258345 345.107603,279.721335 341.175219,279.721335 L333,279.721335 L336.311481,268.748911 L338.795092,268.748911 C340.864767,268.748911 342.31354,268.539913 343.037927,268.121916 C343.865797,267.599419 344.797151,266.449927 345.728505,264.56894 L350.385275,256 L368.908872,256 L365.700875,262.269956 L365.700875,262.165457 Z M400.808726,280.975327 C400.808726,280.975327 405.879431,276.272859 414.572069,274.809869 C416.538261,274.391872 428.956314,274.600871 428.956314,274.600871 L430.819023,268.330914 L404.637626,268.330914 L400.808726,281.079826 L400.808726,280.975327 Z M425.437866,285.782293 L425.437866,285.782293 L399.463436,285.782293 L397.91118,291.111756 L420.470644,291.111756 C423.161223,290.798258 423.678642,291.216255 423.885609,291.007257 L425.54135,285.782293 L425.437866,285.782293 Z M391.702153,256.104499 L391.702153,256.104499 L407.535171,256.104499 L405.258528,264.150943 C405.258528,264.150943 410.22575,260.075472 413.744198,258.612482 C417.262647,257.358491 425.127414,256.104499 425.127414,256.104499 L450.791393,256 L441.995271,285.468795 C440.546498,290.484761 438.787274,293.724238 437.752436,295.291727 C436.821082,296.754717 435.68276,298.113208 433.406117,299.367199 C431.232958,300.516691 429.266766,301.248186 427.404058,301.352685 C425.748317,301.457184 423.057739,301.561684 419.53929,301.561684 L394.806666,301.561684 L387.873253,324.865022 C387.25235,327.164006 386.941899,328.313498 387.355834,328.940493 C387.666285,329.46299 388.597639,330.089985 389.735961,330.089985 L400.601758,329.044993 L396.876342,341.793904 L384.665256,341.793904 C380.732872,341.793904 377.93881,341.689405 375.972618,341.584906 C374.10991,341.375907 372.143718,341.584906 370.798429,340.539913 C369.660107,339.49492 367.900883,338.13643 368.004367,336.777939 C368.10785,335.523948 368.625269,333.433962 369.45314,330.507983 L391.702153,256.104499 L391.702153,256.104499 Z M437.840227,303 L436.391454,310.105951 C435.770551,312.300435 435.253132,313.972424 433.597391,315.435414 C431.838167,316.898403 429.871975,318.465893 425.111721,318.465893 L416.3156,318.88389 L416.212116,326.825835 C416.108632,329.020319 416.729535,328.811321 417.039986,329.229318 C417.453921,329.647315 417.764373,329.751814 418.178308,329.960813 L420.97237,329.751814 L429.354556,329.333817 L425.836108,341.037736 L416.212116,341.037736 C409.48567,341.037736 404.414965,340.828737 402.862708,339.574746 C401.206968,338.529753 401,337.275762 401,334.976778 L401.620903,303.835994 L417.039986,303.835994 L416.833019,310.21045 L420.558435,310.21045 C421.80024,310.21045 422.731594,310.105951 423.249013,309.792453 C423.766432,309.478955 424.076883,308.956459 424.283851,308.224964 L425.836108,303.208999 L437.94371,303.208999 L437.840227,303 Z M218.470396,147 C217.952978,149.507983 208.018534,195.592163 208.018534,195.592163 C205.845375,204.892598 204.293118,211.580552 199.118929,215.865022 C196.117899,218.373004 192.599451,219.522496 188.563583,219.522496 C182.044105,219.522496 178.318689,216.283019 177.697786,210.117562 L177.594302,208.027576 C177.594302,208.027576 179.560494,195.592163 179.560494,195.487663 C179.560494,195.487663 189.908872,153.478955 191.771581,147.940493 C191.875064,147.626996 191.875064,147.417997 191.875064,147.313498 C171.695727,147.522496 168.073794,147.313498 167.866827,147 C167.763343,147.417997 167.245924,150.030479 167.245924,150.030479 L156.690578,197.36865 L155.759224,201.339623 L154,214.506531 C154,218.373004 154.724386,221.612482 156.276643,224.224964 C161.140381,232.793904 174.903724,234.047896 182.665008,234.047896 C192.702935,234.047896 202.119959,231.853411 208.43247,227.986938 C219.505234,221.403483 222.40278,211.058055 224.886391,201.966618 L226.128196,197.264151 C226.128196,197.264151 236.787026,153.687954 238.649734,148.044993 C238.753218,147.731495 238.753218,147.522496 238.856702,147.417997 C224.162004,147.522496 219.919169,147.417997 218.470396,147.104499 L218.470396,147 Z M277.499056,233.622642 C270.358675,233.518142 267.771581,233.518142 259.389394,233.936139 L259.078943,233.309144 C259.803329,230.069666 260.6312,226.934688 261.252102,223.69521 L262.28694,219.306241 C263.839197,212.513788 265.28797,204.467344 265.494937,202.063861 C265.701905,200.600871 266.11584,196.943396 261.976489,196.943396 C260.217264,196.943396 258.45804,197.77939 256.595332,198.615385 C255.560494,202.272859 253.594302,212.513788 252.559465,217.111756 C250.489789,226.934688 250.386305,228.08418 249.454951,232.891147 L248.834048,233.518142 C241.4867,233.413643 238.899605,233.413643 230.413935,233.83164 L230,233.100145 C231.448773,227.248186 232.794062,221.396226 234.139351,215.544267 C237.6578,199.764877 238.589154,193.703919 239.520508,185.657475 L240.244894,185.239478 C248.523597,184.089985 250.489789,183.776488 259.492878,182 L260.217264,182.835994 L258.871975,187.851959 C260.424232,186.911466 261.873005,185.970972 263.425262,185.239478 C267.668097,183.149492 272.324867,182.522496 274.911962,182.522496 C278.844345,182.522496 283.190664,183.671988 284.949888,188.269956 C286.605629,192.345428 285.570791,197.361393 283.294148,207.288824 L282.155826,212.30479 C279.879183,223.381713 279.465248,225.367199 278.223443,232.891147 L277.395572,233.518142 L277.499056,233.622642 Z M306.558435,233.650218 C302.212116,233.650218 299.418054,233.545718 296.727476,233.650218 C294.036897,233.650218 291.449803,233.859216 287.413935,233.963716 L287.206968,233.650218 L287,233.232221 C288.138322,229.05225 288.655741,227.58926 289.276643,226.12627 C289.794062,224.66328 290.311481,223.20029 291.346319,218.91582 C292.588124,213.377358 293.415995,209.510885 293.933413,206.062409 C294.554316,202.822932 294.864767,200.001451 295.278703,196.761974 L295.589154,196.552975 L295.899605,196.239478 C300.245924,195.612482 302.936502,195.194485 305.730565,194.776488 C308.524627,194.358491 311.422173,193.835994 315.871975,193 L316.078943,193.417997 L316.182427,193.835994 C315.354556,197.28447 314.526686,200.732946 313.698816,204.181422 C312.870946,207.629898 312.043075,211.078374 311.318689,214.526851 C309.766432,221.8418 309.042046,224.558781 308.731594,226.544267 C308.317659,228.425254 308.214175,229.365747 307.593273,233.127721 L307.179338,233.441219 L306.765402,233.754717 L306.558435,233.650218 Z M371.229884,208.811321 C373.713495,197.734398 371.747303,192.509434 369.367176,189.374456 C365.64176,184.567489 359.018798,183 352.188868,183 C348.049517,183 338.322041,183.417997 330.664241,190.523948 C325.179601,195.644412 322.592506,202.645864 321.143733,209.333817 C319.591476,216.12627 317.832252,228.352685 329.008501,232.950653 C332.423466,234.413643 337.390687,234.83164 340.598684,234.83164 C348.773903,234.83164 357.156089,232.532656 363.4686,225.844702 C368.332338,220.41074 370.505497,212.259797 371.333368,208.811321 L371.229884,208.811321 Z M352.499319,207.975327 C352.188868,209.856313 350.533127,216.857765 348.359968,219.783745 C346.807711,221.978229 345.048487,223.33672 342.978811,223.33672 C342.357909,223.33672 338.83946,223.33672 338.735976,218.007257 C338.735976,215.394775 339.253395,212.677794 339.874298,209.751814 C341.737006,201.287373 344.013649,194.285922 349.705257,194.285922 C354.15506,194.285922 354.465511,199.510885 352.499319,207.975327 Z M526.690452,231.950416 C526.460466,232.82725 526.230233,233.703036 526,234.577649 L526.517419,235.204644 C534.48567,234.786647 536.969281,234.786647 545.661919,234.891147 L545.661919,234.995646 L546.489789,234.36865 C547.731594,226.844702 548.869916,219.529753 552.181397,205.213353 C553.837137,198.4209 555.389394,191.628447 557.045135,184.731495 L556.838167,184 C547.835078,185.671988 545.454951,185.985486 536.865797,187.239478 L536.244894,187.761974 C536.184289,188.228627 536.124792,188.685759 536.065593,189.136527 C534.748507,187.201455 532.886722,185.564623 530.158879,184.50295 C526.329979,182.935461 517.32689,184.920947 509.66909,192.026898 C504.287934,197.042863 501.597355,204.044315 500.148582,210.732268 C498.596326,217.420222 496.837101,229.751136 507.909866,234.035606 C511.428315,235.603095 514.636312,236.021092 517.844309,235.812094 C521.004205,235.634821 523.949021,234.146055 526.690452,231.950416 L526.690452,231.950416 Z M533.159909,209.373777 C532.745974,211.150265 531.090233,218.256216 528.917074,221.182195 C527.468301,223.272181 523.949852,224.630672 521.983661,224.630672 C521.362758,224.630672 517.947793,224.630672 517.740826,219.405708 C517.740826,216.793226 518.258244,214.076245 518.879147,211.150265 C520.741855,202.894822 523.018498,195.893371 528.710106,195.893371 C533.159909,195.893371 535.126101,201.013836 533.159909,209.478277 L533.159909,209.373777 Z M420.292089,233.622642 C413.151708,233.518142 410.668097,233.518142 402.28591,233.936139 L401.975459,233.309144 C402.699846,230.069666 403.527716,226.934688 404.252102,223.69521 L405.183456,219.306241 C406.735713,212.513788 408.28797,204.467344 408.391454,202.063861 C408.598421,200.600871 409.012356,196.943396 404.976489,196.943396 C403.217264,196.943396 401.354556,197.77939 399.595332,198.615385 C398.663978,202.272859 396.594302,212.513788 395.559465,217.111756 C393.593273,226.934688 393.386305,228.08418 392.454951,232.891147 L391.834048,233.518142 C384.4867,233.413643 381.899605,233.413643 373.413935,233.83164 L373,233.100145 C374.448773,227.248186 375.794062,221.396226 377.139351,215.544267 C380.6578,199.764877 381.48567,193.703919 382.520508,185.657475 L383.141411,185.239478 C391.420113,184.089985 393.489789,183.776488 402.389394,182 L403.113781,182.835994 L401.871975,187.851959 C403.320748,186.911466 404.873005,185.970972 406.321778,185.239478 C410.564613,183.149492 415.221383,182.522496 417.808478,182.522496 C421.740862,182.522496 425.983697,183.671988 427.846405,188.269956 C429.502145,192.345428 428.363824,197.361393 426.08718,207.288824 L424.948859,212.30479 C422.568732,223.381713 422.25828,225.367199 421.016475,232.891147 L420.188605,233.518142 L420.292089,233.622642 Z M482.293118,147.104499 L476.291059,147.208999 C460.768492,147.417997 454.559465,147.313498 452.075854,147 C451.868886,148.149492 451.454951,150.134978 451.454951,150.134978 C451.454951,150.134978 445.866827,176.050798 445.866827,176.155298 C445.866827,176.155298 432.620903,231.330914 432,233.943396 C445.556375,233.734398 451.041016,233.734398 453.421143,234.047896 C453.938562,231.435414 457.043075,216.07402 457.146559,216.07402 C457.146559,216.07402 459.837137,204.788099 459.940621,204.370102 C459.940621,204.370102 460.768492,203.22061 461.596362,202.698113 L462.838167,202.698113 C474.531835,202.698113 487.674275,202.698113 498.022653,195.069666 C505.05955,189.844702 509.819804,182.007257 511.992964,172.602322 C512.510383,170.303338 512.924318,167.586357 512.924318,164.764877 C512.924318,161.107402 512.199931,157.554427 510.130256,154.732946 C504.852583,147.313498 494.400721,147.208999 482.293118,147.104499 Z M490.054402,174.169811 C488.812597,179.917271 485.08718,184.828737 480.326926,187.127721 C476.394543,189.113208 471.634289,189.322206 466.667067,189.322206 L463.45907,189.322206 L463.666037,188.068215 C463.666037,188.068215 469.564613,162.152395 469.564613,162.256894 L469.771581,160.898403 L469.875064,159.853411 L472.255191,160.062409 C472.255191,160.062409 484.466278,161.107402 484.673245,161.107402 C489.433499,162.988389 491.503175,167.795356 490.054402,174.169811 Z M559.083003,256 L559,255.776488 C564.588124,247.312046 565.933413,243.654572 571.728505,234.040639 C570.693667,223.277213 570.176248,219.828737 569.348378,212.722787 C568.830959,208.542816 568.210057,204.258345 567.692638,199.973875 C566.6578,191.300435 566.864767,192.554427 565.82993,187.015965 L565.726446,186.911466 C565.726446,186.597968 565.726446,186.28447 565.82993,185.970972 L566.450832,185.343977 C574.936502,184.194485 575.14347,183.880987 584.45701,182.104499 L585.181397,182.940493 L586.423202,206.975327 C586.526686,207.497823 586.526686,207.811321 586.526686,208.333817 C591.390424,197.256894 591.28694,200.287373 597.288999,186.179971 L597.288999,186.28447 C597.288999,186.075472 597.392483,185.970972 597.392483,185.866473 L598.013386,185.239478 C606.085121,184.089985 607.740862,183.776488 616.536983,182 L617.261369,182.835994 L617.364853,182.940493 C617.364853,182.940493 581.766432,244.595065 577.109662,254.731495 L575.764373,256.298984 C575.71682,256.298984 575.669522,256.298984 575.622475,256.298984 L568.80127,268.121916 C566.628111,272.197388 562.488759,275.332366 556.072765,275.332366 L545,275.123367 L548.207997,264.255443 L550.381157,264.255443 C551.519478,264.255443 552.347349,264.150943 552.968251,263.837446 C553.589154,263.628447 553.899605,263.21045 554.417024,262.583454 L558.556375,256 L559.083003,256 Z M314.543608,189.75837 C319.303862,186.414394 319.924765,181.816425 315.888897,179.412942 C311.85303,177.009459 304.712649,177.740954 299.952395,181.084931 C295.192141,184.324408 294.674722,188.922376 298.71059,191.430359 C302.642973,193.729343 309.783354,193.102347 314.543608,189.75837 L314.543608,189.75837 Z"/>
</svg>

<svg xmlns="http://www.w3.org/2000/svg" width="750" height="471" viewBox="0 0 750 471"><path fill="#393939" fill-rule="evenodd" d="M0 40.005C0 17.91 17.914 0 39.992 0h670.016C732.095 0 750 17.906 750 40.005v390.99C750 453.09 732.086 471 710.008 471H39.992C17.905 471 0 453.094 0 430.995V40.005zm496.181 297.922h-4.095l-1.138 3.658H474.39l1.139-3.658H442l3.311-11.076h3.415l17.593-58.938L469.837 256h16.868l-1.76 5.956s4.45-3.239 8.797-4.389c3.433-.93 20.076-1.38 26.305-1.52L520 256h18.006l.207 6.792c-.103 1.15.828 1.672 3.001 1.672h3.622l-3.311 11.182h-9.728c-8.382.627-11.59-3.03-11.383-7.106l-.14-5.588-1.489 4.856h-5.795l.103.105-17.385 57.997h4.657l-1.515 5.026h4.222c1.345 0 2.587-.522 3.518-1.045.932-.418 1.76-.836 2.587-2.194l13.04-18.497h-17.18l2.898-9.927h19.662l2.794-9.092H511.04L514.351 279h53.812l-3.311 11.181h-18.11l-2.794 9.092h18.11l-3.002 9.927h-19.558l-3.518 4.18h7.968l1.966 12.54c.207 1.254.207 2.09.62 2.613.415.418 2.795.627 4.14.627h2.38l-3.725 12.226h-6.106c-.93 0-2.38-.104-4.346-.104-1.863-.21-3.104-1.254-4.346-1.881-1.139-.523-2.794-1.881-3.208-4.285l-1.863-12.54-8.9 12.331c-2.794 3.867-6.622 6.897-13.142 6.897H495l1.181-3.877zm-30.276-11.912h13.453l3.829-13.063h-13.35l-3.932 13.063zm10.762-35.948l-4.657 15.466s5.071-2.613 7.865-3.449c2.794-.627 6.933-1.15 6.933-1.15l3.208-10.763h-13.452l.103-.104zm6.572-22.154l-4.295 13.062s4.795-2.023 7.492-2.667c2.697-.644 6.693-.828 6.693-.828l3.097-9.475h-12.887l-.1-.092zM334.314 282h45.429l-3.312 10.972h-18.11l-2.793 9.3h18.627l-3.415 11.287h-18.524l-4.553 15.152c-.517 1.672 4.45 1.881 6.209 1.881l9.314-1.254-3.726 12.54h-20.904c-1.655 0-2.897-.209-4.76-.627-1.76-.418-2.587-1.254-3.311-2.403-.725-1.254-1.967-2.195-1.139-4.912l6.002-20.064H325l3.415-11.495h10.348l2.794-9.3H331.21l3.312-10.973-.207-.104zm31.387-19.835h18.627l-3.415 11.39h-25.457l-2.794 2.404c-1.242 1.15-1.552.732-3.105 1.568-1.448.731-4.45 2.194-8.382 2.194H333l3.311-10.972h2.484c2.07 0 3.519-.21 4.243-.627.828-.523 1.76-1.672 2.69-3.553l4.657-8.569h18.524l-3.208 6.27v-.105zm35.108 18.81s5.07-4.702 13.763-6.165c1.966-.418 14.384-.21 14.384-.21l1.863-6.27h-26.181l-3.83 12.75v-.105zm24.629 4.807h-25.975l-1.552 5.33h22.56c2.69-.314 3.208.104 3.415-.105l1.655-5.225h-.103zm-33.736-29.678h15.833l-2.276 8.047s4.967-4.076 8.485-5.539c3.519-1.254 11.383-2.508 11.383-2.508l25.664-.104-8.796 29.469c-1.449 5.016-3.208 8.255-4.243 9.823-.93 1.463-2.07 2.821-4.346 4.075-2.173 1.15-4.14 1.881-6.002 1.986-1.656.104-4.346.209-7.865.209h-24.732l-6.934 23.303c-.62 2.299-.931 3.448-.517 4.075.31.523 1.242 1.15 2.38 1.15l10.866-1.045-3.726 12.749h-12.21c-3.933 0-6.727-.105-8.693-.21-1.863-.208-3.83 0-5.175-1.044-1.138-1.045-2.897-2.404-2.794-3.762.104-1.254.621-3.344 1.45-6.27l22.248-74.404zM437.84 303l-1.449 7.106c-.62 2.194-1.138 3.866-2.794 5.33-1.759 1.462-3.725 3.03-8.485 3.03l-8.796.418-.104 7.942c-.103 2.194.518 1.985.828 2.403.414.418.724.523 1.138.732l2.794-.21 8.383-.417-3.519 11.704h-9.624c-6.726 0-11.797-.21-13.35-1.463-1.655-1.045-1.862-2.3-1.862-4.598l.62-31.141h15.42l-.207 6.374h3.725c1.242 0 2.174-.104 2.691-.418.517-.313.828-.836 1.035-1.567l1.552-5.016h12.108l-.104-.209zM218.47 147c-.517 2.508-10.451 48.592-10.451 48.592-2.174 9.3-3.726 15.989-8.9 20.273-3.001 2.508-6.52 3.657-10.555 3.657-6.52 0-10.245-3.239-10.866-9.404l-.104-2.09s1.966-12.436 1.966-12.54c0 0 10.349-42.009 12.212-47.548.103-.313.103-.522.103-.627-20.18.21-23.801 0-24.008-.313-.104.418-.621 3.03-.621 3.03L156.69 197.37l-.932 3.97L154 214.508c0 3.866.724 7.105 2.277 9.718 4.863 8.569 18.627 9.823 26.388 9.823 10.038 0 19.455-2.195 25.767-6.061 11.073-6.584 13.97-16.929 16.454-26.02l1.242-4.703s10.659-43.576 12.522-49.219c.103-.314.103-.523.207-.627-14.695.104-18.938 0-20.387-.314V147zm59.03 86.623c-7.141-.105-9.728-.105-18.11.313l-.311-.627c.724-3.24 1.552-6.374 2.173-9.614l1.035-4.389c1.552-6.792 3.001-14.839 3.208-17.242.207-1.463.62-5.12-3.519-5.12-1.759 0-3.518.835-5.38 1.671-1.036 3.658-3.002 13.899-4.037 18.497-2.07 9.823-2.173 10.972-3.104 15.78l-.621.626c-7.347-.104-9.934-.104-18.42.314L230 233.1c1.449-5.852 2.794-11.704 4.14-17.556 3.518-15.78 4.45-21.84 5.38-29.887l.725-.418c8.279-1.149 10.245-1.463 19.248-3.239l.724.836-1.345 5.016c1.552-.94 3.001-1.881 4.553-2.613 4.243-2.09 8.9-2.717 11.487-2.717 3.932 0 8.279 1.15 10.038 5.748 1.656 4.075.62 9.091-1.656 19.019l-1.138 5.016c-2.277 11.077-2.69 13.062-3.933 20.586l-.827.627.103.105zm29.058.027c-4.346 0-7.14-.104-9.83 0-2.691 0-5.278.21-9.314.314l-.207-.314-.207-.418c1.138-4.18 1.656-5.643 2.277-7.106.517-1.463 1.034-2.926 2.07-7.21 1.241-5.539 2.069-9.405 2.586-12.854.621-3.24.932-6.06 1.346-9.3l.31-.209.31-.314c4.347-.627 7.038-1.045 9.832-1.463 2.794-.418 5.691-.94 10.141-1.776l.207.418.103.418-2.483 10.345c-.828 3.449-1.656 6.897-2.38 10.346-1.553 7.315-2.277 10.032-2.587 12.017-.414 1.881-.518 2.822-1.139 6.584l-.414.313-.414.314-.207-.105zm64.672-24.839c2.483-11.077.517-16.302-1.863-19.437-3.725-4.807-10.348-6.374-17.178-6.374-4.14 0-13.867.418-21.525 7.524-5.484 5.12-8.071 12.122-9.52 18.81-1.553 6.792-3.312 19.019 7.865 23.617 3.414 1.463 8.382 1.88 11.59 1.88 8.175 0 16.557-2.298 22.87-8.986 4.863-5.434 7.036-13.585 7.864-17.034h-.103zm-18.73-.836c-.311 1.881-1.967 8.883-4.14 11.809-1.552 2.194-3.312 3.553-5.381 3.553-.621 0-4.14 0-4.243-5.33 0-2.612.517-5.33 1.138-8.255 1.863-8.465 4.14-15.466 9.831-15.466 4.45 0 4.76 5.225 2.794 13.69zm174.19 23.975l-.69 2.628.517.627c7.969-.418 10.452-.418 19.145-.314v.105l.828-.627c1.242-7.524 2.38-14.84 5.691-29.156 1.656-6.792 3.208-13.585 4.864-20.482l-.207-.731c-9.003 1.672-11.383 1.985-19.972 3.24l-.621.522c-.06.467-.12.924-.18 1.375-1.316-1.936-3.178-3.572-5.906-4.634-3.829-1.568-12.832.418-20.49 7.524-5.381 5.016-8.072 12.017-9.52 18.705-1.553 6.688-3.312 19.02 7.76 23.304 3.52 1.567 6.727 1.985 9.935 1.776 3.16-.177 6.105-1.666 8.846-3.862zm6.47-22.576c-.414 1.776-2.07 8.882-4.243 11.808-1.449 2.09-4.967 3.449-6.933 3.449-.621 0-4.036 0-4.243-5.225 0-2.613.517-5.33 1.138-8.256 1.863-8.255 4.14-15.257 9.831-15.257 4.45 0 6.416 5.12 4.45 13.585v-.104zm-112.868 24.249c-7.14-.105-9.624-.105-18.006.313l-.31-.627c.724-3.24 1.552-6.374 2.276-9.614l.931-4.389c1.553-6.792 3.105-14.839 3.208-17.242.207-1.463.621-5.12-3.415-5.12-1.759 0-3.621.835-5.38 1.671-.932 3.658-3.002 13.899-4.037 18.497-1.966 9.823-2.173 10.972-3.104 15.78l-.621.626c-7.347-.104-9.934-.104-18.42.314L373 233.1c1.449-5.852 2.794-11.704 4.14-17.556 3.518-15.78 4.346-21.84 5.38-29.887l.621-.418c8.28-1.149 10.349-1.463 19.248-3.239l.725.836-1.242 5.016c1.449-.94 3.001-1.881 4.45-2.613 4.243-2.09 8.9-2.717 11.486-2.717 3.933 0 8.176 1.15 10.038 5.748 1.656 4.075.518 9.091-1.759 19.019l-1.138 5.016c-2.38 11.077-2.69 13.062-3.933 20.586l-.827.627.103.105zm62.001-86.519l-6.002.105c-15.523.209-21.732.104-24.215-.209-.207 1.15-.621 3.135-.621 3.135s-5.588 25.916-5.588 26.02c0 0-13.246 55.176-13.867 57.788 13.556-.209 19.041-.209 21.421.105.518-2.613 3.622-17.974 3.726-17.974 0 0 2.69-11.286 2.794-11.704 0 0 .827-1.15 1.655-1.672h1.242c11.694 0 24.836 0 35.185-7.628 7.037-5.225 11.797-13.063 13.97-22.468.517-2.299.931-5.016.931-7.837 0-3.658-.724-7.21-2.794-10.032-5.277-7.42-15.73-7.524-27.837-7.629zm7.761 27.066c-1.241 5.747-4.967 10.659-9.727 12.958-3.932 1.985-8.693 2.194-13.66 2.194h-3.208l.207-1.254s5.899-25.916 5.899-25.811l.207-1.359.103-1.045 2.38.21s12.211 1.044 12.418 1.044c4.76 1.881 6.83 6.688 5.381 13.063zM559.083 256l-.083-.224c5.588-8.464 6.933-12.121 12.729-21.735-1.035-10.764-1.553-14.212-2.38-21.318-.518-4.18-1.139-8.465-1.656-12.75-1.035-8.673-.828-7.419-1.863-12.957l-.104-.105c0-.313 0-.627.104-.94l.62-.627c8.487-1.15 8.693-1.463 18.007-3.24l.724.836 1.242 24.035c.104.523.104.836.104 1.359 4.863-11.077 4.76-8.047 10.762-22.154v.104c0-.209.103-.313.103-.418l.621-.627c8.072-1.149 9.728-1.463 18.524-3.239l.724.836.104.104s-35.599 61.655-40.255 71.791l-1.346 1.568h-.142l-6.82 11.823c-2.174 4.075-6.313 7.21-12.73 7.21L545 275.123l3.208-10.868h2.173c1.138 0 1.966-.104 2.587-.418.621-.209.932-.627 1.449-1.254l4.14-6.583h.526zm-244.54-66.242c4.76-3.344 5.382-7.942 1.346-10.345-4.036-2.404-11.176-1.672-15.937 1.672-4.76 3.24-5.277 7.837-1.241 10.345 3.932 2.3 11.072 1.672 15.833-1.672z"/></svg>
